Sources/FrostedUI/Resources/Icons.xcassets/bannerPhoto20.imageset/banner-photo-20.svg

<svg width="20" height="20" viewBox="0 0 20 20" fill="none" xmlns="http://www.w3.org/2000/svg" data-fui-icon="true">
  <path
    d="M15.2363 3.74121C17.4578 3.74132 19.2596 5.54217 19.2598 7.76367V13C19.2597 15.2215 17.4579 17.0233 15.2363 17.0234H4.76367C2.54217 17.0233 0.741315 15.2215 0.741211 13V7.76367C0.741355 5.54219 2.54219 3.74135 4.76367 3.74121H15.2363ZM4.76367 5.24121C3.37062 5.24135 2.24135 6.37062 2.24121 7.76367V10.582L3.78027 8.83008C4.10422 8.4613 4.52079 8.19513 4.97949 8.05078C5.2342 7.97068 5.5018 7.9268 5.77441 7.92676C6.50686 7.92681 7.20733 8.23 7.70898 8.76367L10.3799 11.6055L11.3975 10.3447C11.7313 9.93067 12.1869 9.64087 12.6914 9.50977C12.846 9.46931 13.0052 9.44383 13.167 9.43457L13.3057 9.43066H13.3076C13.9959 9.43084 14.6526 9.72063 15.1172 10.2285L17.7529 13.1104C17.7545 13.0737 17.7598 13.037 17.7598 13V7.76367C17.7596 6.37059 16.6294 5.24132 15.2363 5.24121H4.76367Z"
    fill="currentColor"
  />
</svg>

<svg xmlns="http://www.w3.org/2000/svg" width="20" height="20" fill="none" data-fui-icon="true" viewBox="0 0 20 20"><path fill="currentColor" d="M15.236 3.741a4.024 4.024 0 0 1 4.024 4.023V13a4.024 4.024 0 0 1-4.024 4.023H4.764A4.023 4.023 0 0 1 .74 13V7.764A4.023 4.023 0 0 1 4.764 3.74zm-10.472 1.5A2.523 2.523 0 0 0 2.24 7.764v2.818l1.54-1.752c.323-.369.74-.635 1.198-.78a2.656 2.656 0 0 1 2.73.713l2.67 2.842 1.019-1.26a2.46 2.46 0 0 1 1.769-.91l.139-.004h.002c.688 0 1.345.29 1.81.798l2.635 2.881c.002-.036.007-.073.007-.11V7.764a2.524 2.524 0 0 0-2.524-2.523z"/></svg>
